public/images/sw-skills/pytorch.svg

<svg xmlns="http://www.w3.org/2000/svg" xml:space="preserve" style="fill-rule:evenodd;clip-rule:evenodd;stroke-linejoin:round;stroke-miterlimit:2" viewBox="0 0 2400 1600"><path d="M0 0h2400v1600H0z" style="fill:#262626"/><path d="m63.1 28.3-6.6 6.6c10.8 10.8 10.8 28.2 0 38.8-10.8 10.8-28.2 10.8-38.8 0-10.8-10.8-10.8-28.2 0-38.8l19.5-19.5V2.5L11.4 28.3C-3 42.7-3 65.9 11.4 80.3s37.6 14.4 51.7 0c14.4-14.5 14.4-37.6 0-52" style="fill:#ee4c2c;fill-rule:nonzero" transform="translate(280.302 570.499)scale(3.76539)"/><path d="M55 21.9a4.8 4.8 0 1 1-9.6 0 4.8 4.8 0 0 1 9.6 0" style="fill:#ee4c2c;fill-rule:nonzero" transform="translate(280.302 570.499)scale(3.76539)"/><path d="M129.8 61.3h-11.1v28.5h-8.4V8.7h20.4c21.3 0 31.5 10.5 31.5 25.2.3 18.1-12.3 27.4-32.4 27.4m.9-44.5H119v37.3l11.4-.3c15.3-.3 23.7-6.3 23.7-18.9 0-11.8-8.4-18.1-23.4-18.1m69.1 72.7-4.8 12.9c-5.4 14.4-11.1 18.6-19.2 18.6-4.5 0-7.8-1.2-11.4-2.7l2.4-7.5c2.7 1.5 5.7 2.7 9 2.7 4.5 0 7.8-2.4 12.3-13.8l3.9-10.5-23.1-58.6h8.7l18.6 49 18.3-49h8.4z" style="fill:#fff;fill-rule:nonzero" transform="translate(280.302 570.499)scale(3.76539)"/><path d="M250.3 16.8v73.3h-8.4V16.8h-28.5V9h65.2v7.8zm52 74.8c-16.5 0-28.5-12.3-28.5-31.2s12.6-31.5 29.4-31.5 28.5 12.3 28.5 31.2c-.3 18.9-12.9 31.5-29.4 31.5m.3-55.2c-12.6 0-20.7 9.9-20.7 24 0 14.4 8.4 24.3 21 24.3s20.7-9.9 20.7-24c0-14.7-8.4-24.3-21-24.3m49.2 53.7h-8.1V30.6l8.1-1.8v12.6c3.9-7.5 9.6-12.6 17.4-12.6 3.9 0 7.5 1.2 10.5 2.7l-2.1 7.5c-2.7-1.5-5.7-2.7-9-2.7-6.3 0-12 4.8-16.8 15.3zm59.5 1.5c-18 0-29.1-12.9-29.1-31.2 0-18.6 12.3-31.5 29.1-31.5 7.2 0 13.5 1.8 18.6 5.1l-2.1 7.2c-4.5-3-10.2-4.8-16.5-4.8-12.9 0-20.7 9.6-20.7 23.7 0 14.4 8.4 24 21 24 6 0 12-1.8 16.5-4.8l1.8 7.5c-5.4 3-11.7 4.8-18.6 4.8m68.2-1.4V51.6c0-10.5-4.2-15-12.6-15-6.9 0-13.5 3.6-18.3 8.4v45.1h-8.1V2.7l8.1-1.8v37.6c6.3-6.3 14.1-9.3 20.7-9.3 11.4 0 18.6 7.5 18.6 20.4v40.6z" style="fill:#fff;fill-rule:nonzero" transform="translate(280.302 570.499)scale(3.76539)"/></svg>

<?xml version="1.0" encoding="UTF-8" standalone="no"?>
<!DOCTYPE svg PUBLIC "-//W3C//DTD SVG 1.1//EN" "http://www.w3.org/Graphics/SVG/1.1/DTD/svg11.dtd">
<svg width="100%" height="100%" viewBox="0 0 2400 1600" version="1.1" xmlns="http://www.w3.org/2000/svg" xmlns:xlink="http://www.w3.org/1999/xlink" xml:space="preserve" xmlns:serif="http://www.serif.com/" style="fill-rule:evenodd;clip-rule:evenodd;stroke-linejoin:round;stroke-miterlimit:2;">
    <rect x="0" y="0" width="2400" height="1600" style="fill:rgb(38,38,38);"/>
    <g id="Path" transform="matrix(3.76539,0,0,3.76539,280.302,570.499)">
        <path d="M63.1,28.3L56.5,34.9C67.3,45.7 67.3,63.1 56.5,73.7C45.7,84.5 28.3,84.5 17.7,73.7C6.9,62.9 6.9,45.5 17.7,34.9L37.2,15.4L37.2,2.5L11.4,28.3C-3,42.7 -3,65.9 11.4,80.3C25.8,94.7 49,94.7 63.1,80.3C77.5,65.8 77.5,42.7 63.1,28.3Z" style="fill:rgb(238,76,44);fill-rule:nonzero;"/>
    </g>
    <g id="Path-1" transform="matrix(3.76539,0,0,3.76539,280.302,570.499)">
        <path d="M55,21.9C55,24.551 52.851,26.7 50.2,26.7C47.549,26.7 45.4,24.551 45.4,21.9C45.4,19.249 47.549,17.1 50.2,17.1C52.851,17.1 55,19.249 55,21.9Z" style="fill:rgb(238,76,44);fill-rule:nonzero;"/>
    </g>
    <g id="group-2" transform="matrix(3.76539,0,0,3.76539,280.302,570.499)">
        <path id="Path-2" d="M129.8,61.3L118.7,61.3L118.7,89.8L110.3,89.8L110.3,8.7L130.7,8.7C152,8.7 162.2,19.2 162.2,33.9C162.5,52 149.9,61.3 129.8,61.3ZM130.7,16.8L119,16.8L119,54.1L130.4,53.8C145.7,53.5 154.1,47.5 154.1,34.9C154.1,23.1 145.7,16.8 130.7,16.8Z" style="fill:white;fill-rule:nonzero;"/>
        <path id="Path-3" d="M199.8,89.5L195,102.4C189.6,116.8 183.9,121 175.8,121C171.3,121 168,119.8 164.4,118.3L166.8,110.8C169.5,112.3 172.5,113.5 175.8,113.5C180.3,113.5 183.6,111.1 188.1,99.7L192,89.2L168.9,30.6L177.6,30.6L196.2,79.6L214.5,30.6L222.9,30.6L199.8,89.5Z" style="fill:white;fill-rule:nonzero;"/>
        <path id="Path-4" d="M250.3,16.8L250.3,90.1L241.9,90.1L241.9,16.8L213.4,16.8L213.4,9L278.6,9L278.6,16.8L250.3,16.8Z" style="fill:white;fill-rule:nonzero;"/>
        <path id="Path-5" d="M302.3,91.6C285.8,91.6 273.8,79.3 273.8,60.4C273.8,41.5 286.4,28.9 303.2,28.9C320,28.9 331.7,41.2 331.7,60.1C331.4,79 318.8,91.6 302.3,91.6ZM302.6,36.4C290,36.4 281.9,46.3 281.9,60.4C281.9,74.8 290.3,84.7 302.9,84.7C315.5,84.7 323.6,74.8 323.6,60.7C323.6,46 315.2,36.4 302.6,36.4Z" style="fill:white;fill-rule:nonzero;"/>
        <path id="Path-6" d="M351.8,90.1L343.7,90.1L343.7,30.6L351.8,28.8L351.8,41.4C355.7,33.9 361.4,28.8 369.2,28.8C373.1,28.8 376.7,30 379.7,31.5L377.6,39C374.9,37.5 371.9,36.3 368.6,36.3C362.3,36.3 356.6,41.1 351.8,51.6L351.8,90.1Z" style="fill:white;fill-rule:nonzero;"/>
        <path id="Path-7" d="M411.3,91.6C393.3,91.6 382.2,78.7 382.2,60.4C382.2,41.8 394.5,28.9 411.3,28.9C418.5,28.9 424.8,30.7 429.9,34L427.8,41.2C423.3,38.2 417.6,36.4 411.3,36.4C398.4,36.4 390.6,46 390.6,60.1C390.6,74.5 399,84.1 411.6,84.1C417.6,84.1 423.6,82.3 428.1,79.3L429.9,86.8C424.5,89.8 418.2,91.6 411.3,91.6Z" style="fill:white;fill-rule:nonzero;"/>
        <path id="Path-8" d="M479.5,90.2L479.5,51.6C479.5,41.1 475.3,36.6 466.9,36.6C460,36.6 453.4,40.2 448.6,45L448.6,90.1L440.5,90.1L440.5,2.7L448.6,0.9L448.6,38.5C454.9,32.2 462.7,29.2 469.3,29.2C480.7,29.2 487.9,36.7 487.9,49.6L487.9,90.2L479.5,90.2Z" style="fill:white;fill-rule:nonzero;"/>
    </g>
</svg>
